Newaita-dark/apps/256/qtox.svg

<?xml version="1.0" encoding="UTF-8"?>
<svg xmlns="http://www.w3.org/2000/svg" xmlns:xlink="http://www.w3.org/1999/xlink" width="256pt" height="256pt" viewBox="0 0 256 256" version="1.1">
<defs>
<radialGradient id="radial0" gradientUnits="userSpaceOnUse" cx="450.908936" cy="189.579361" fx="450.908936" fy="189.579361" r="21.166656" gradientTransform="matrix(0.00000139336,-0.62506,-1.125108,-0.000000812309,406.460868,508.762645)">
<stop offset="0" style="stop-color:rgb(0%,0%,0%);stop-opacity:0.313725;"/>
<stop offset="0.222222" style="stop-color:rgb(0%,0%,0%);stop-opacity:0.27451;"/>
<stop offset="1" style="stop-color:rgb(0%,0%,0%);stop-opacity:0;"/>
</radialGradient>
<radialGradient id="radial1" gradientUnits="userSpaceOnUse" cx="450.908936" cy="189.579361" fx="450.908936" fy="189.579361" r="21.166656" gradientTransform="matrix(-0.00000139336,0.62506,1.125108,0.000000812309,-152.436614,-60.219835)">
<stop offset="0" style="stop-color:rgb(0%,0%,0%);stop-opacity:0.313725;"/>
<stop offset="0.222222" style="stop-color:rgb(0%,0%,0%);stop-opacity:0.27451;"/>
<stop offset="1" style="stop-color:rgb(0%,0%,0%);stop-opacity:0;"/>
</radialGradient>
<radialGradient id="radial2" gradientUnits="userSpaceOnUse" cx="450.908936" cy="189.579361" fx="450.908936" fy="189.579361" r="21.166656" gradientTransform="matrix(-0.00000139336,-0.62506,1.125108,-0.000000812309,-152.436614,508.762645)">
<stop offset="0" style="stop-color:rgb(0%,0%,0%);stop-opacity:0.313725;"/>
<stop offset="0.222222" style="stop-color:rgb(0%,0%,0%);stop-opacity:0.27451;"/>
<stop offset="1" style="stop-color:rgb(0%,0%,0%);stop-opacity:0;"/>
</radialGradient>
<radialGradient id="radial3" gradientUnits="userSpaceOnUse" cx="450.908936" cy="189.579361" fx="450.908936" fy="189.579361" r="21.166656" gradientTransform="matrix(0.00000139336,0.62506,-1.125108,0.000000812309,406.460852,-60.21985)">
<stop offset="0" style="stop-color:rgb(0%,0%,0%);stop-opacity:0.313725;"/>
<stop offset="0.222222" style="stop-color:rgb(0%,0%,0%);stop-opacity:0.27451;"/>
<stop offset="1" style="stop-color:rgb(0%,0%,0%);stop-opacity:0;"/>
</radialGradient>
<linearGradient id="linear0" gradientUnits="userSpaceOnUse" x1="254" y1="233.5" x2="254" y2="254.666672" gradientTransform="matrix(0.619107,0,0,0.500048,-26.964908,107.510287)">
<stop offset="0" style="stop-color:rgb(0%,0%,0%);stop-opacity:0.27451;"/>
<stop offset="1" style="stop-color:rgb(0%,0%,0%);stop-opacity:0;"/>
</linearGradient>
<linearGradient id="linear1" gradientUnits="userSpaceOnUse" x1="960" y1="1695.118164" x2="960" y2="175.118118" gradientTransform="matrix(0.132304,0,0,0.132304,0,0)">
<stop offset="0" style="stop-color:rgb(25.882353%,25.882353%,25.882353%);stop-opacity:1;"/>
<stop offset="1" style="stop-color:rgb(38.039216%,38.039216%,38.039216%);stop-opacity:1;"/>
</linearGradient>
<linearGradient id="linear2" gradientUnits="userSpaceOnUse" x1="960" y1="335.118103" x2="960" y2="1055.118164" >
<stop offset="0" style="stop-color:rgb(74.117647%,74.117647%,74.117647%);stop-opacity:1;"/>
<stop offset="1" style="stop-color:rgb(93.333333%,93.333333%,93.333333%);stop-opacity:1;"/>
</linearGradient>
<linearGradient id="linear3" gradientUnits="userSpaceOnUse" x1="254" y1="64.166664" x2="254" y2="127.666656" >
<stop offset="0" style="stop-color:rgb(74.117647%,74.117647%,74.117647%);stop-opacity:1;"/>
<stop offset="1" style="stop-color:rgb(93.333333%,93.333333%,93.333333%);stop-opacity:1;"/>
</linearGradient>
<linearGradient id="linear4" gradientUnits="userSpaceOnUse" x1="960" y1="1375.118164" x2="960" y2="1615.118164" >
<stop offset="0" style="stop-color:rgb(74.117647%,74.117647%,74.117647%);stop-opacity:1;"/>
<stop offset="1" style="stop-color:rgb(93.333333%,93.333333%,93.333333%);stop-opacity:1;"/>
</linearGradient>
</defs>
<g id="surface1">
<path style=" stroke:none;fill-rule:nonzero;fill:url(#radial0);" d="M 195.808594 224.269531 L 216.980469 224.269531 L 216.980469 213.6875 L 195.808594 213.6875 Z M 195.808594 224.269531 "/>
<path style=" stroke:none;fill-rule:nonzero;fill:url(#radial1);" d="M 58.214844 224.269531 L 37.046875 224.269531 L 37.046875 234.855469 L 58.214844 234.855469 Z M 58.214844 224.269531 "/>
<path style=" stroke:none;fill-rule:nonzero;fill:url(#radial2);" d="M 58.214844 224.269531 L 37.046875 224.269531 L 37.046875 213.6875 L 58.214844 213.6875 Z M 58.214844 224.269531 "/>
<path style=" stroke:none;fill-rule:nonzero;fill:url(#radial3);" d="M 195.808594 224.269531 L 216.980469 224.269531 L 216.980469 234.855469 L 195.808594 234.855469 Z M 195.808594 224.269531 "/>
<path style=" stroke:none;fill-rule:nonzero;fill:url(#linear0);" d="M 58.214844 224.269531 L 195.808594 224.269531 L 195.808594 234.855469 L 58.214844 234.855469 Z M 58.214844 224.269531 "/>
<path style=" stroke:none;fill-rule:nonzero;fill:url(#linear1);" d="M 126.585938 23.167969 C 97.503906 23.167969 74.089844 46.773438 74.089844 76.089844 L 74.089844 107.84375 L 52.921875 107.84375 C 47.058594 107.84375 42.335938 112.5625 42.335938 118.429688 L 42.335938 213.6875 C 42.335938 219.550781 47.058594 224.269531 52.921875 224.269531 L 201.101562 224.269531 C 206.964844 224.269531 211.6875 219.550781 211.6875 213.6875 L 211.6875 118.429688 C 211.6875 112.5625 206.964844 107.84375 201.101562 107.84375 L 179.933594 107.84375 L 179.933594 76.089844 C 179.933594 46.773438 156.519531 23.167969 127.4375 23.167969 Z M 126.585938 23.167969 "/>
<path style="fill-rule:nonzero;fill:url(#linear2);stroke-width:11.338583;stroke-linecap:butt;stroke-linejoin:miter;stroke:rgb(12.941177%,12.941177%,12.941177%);stroke-opacity:1;stroke-miterlimit:4;" d="M 959.996958 335.105812 C 827.047049 335.105812 719.990337 442.162523 719.990337 575.112433 C 719.990337 708.091867 827.047049 815.119053 959.996958 815.119053 C 992.119876 815.119053 1022.707508 808.859808 1050.667438 797.492783 C 1089.994393 936.022868 971.186835 1010.277592 1040.77665 1010.277592 C 1229.174023 937.912452 1200.003579 595.130207 1200.003579 573.901918 C 1200.003579 573.518097 1199.974054 573.1638 1199.974054 572.809503 C 1198.734015 440.922484 1092.179224 335.105812 959.996958 335.105812 Z M 959.996958 335.105812 " transform="matrix(0.132304,0,0,0.132304,0,0)"/>
<path style="fill-rule:nonzero;fill:url(#linear3);stroke-width:3;stroke-linecap:butt;stroke-linejoin:miter;stroke:rgb(12.941177%,12.941177%,12.941177%);stroke-opacity:1;stroke-miterlimit:4;" d="M 253.999182 64.168653 C 271.53657 64.168653 285.74615 78.190752 285.74615 95.493787 L 285.74615 96.345268 C 285.74615 113.640491 271.53657 127.670402 253.999182 127.670402 C 236.461794 127.670402 222.252213 113.640491 222.252213 96.345268 L 222.252213 95.493787 C 222.252213 78.190752 236.461794 64.168653 253.999182 64.168653 Z M 253.999182 64.168653 " transform="matrix(0.500048,0,0,0.500048,0,107.510266)"/>
<path style="fill-rule:nonzero;fill:url(#linear4);stroke-width:11.338583;stroke-linecap:butt;stroke-linejoin:miter;stroke:rgb(12.941177%,12.941177%,12.941177%);stroke-opacity:1;stroke-miterlimit:4;" d="M 843.43328 1324.922758 C 792.857398 1353.916054 759.996362 1401.332789 759.996362 1455.126867 L 759.996362 1535.109391 C 759.996362 1579.426027 795.691774 1615.121439 840.00841 1615.121439 L 1079.985506 1615.121439 C 1124.331667 1615.121439 1159.997554 1579.426027 1159.997554 1535.109391 L 1159.997554 1455.126867 C 1159.997554 1401.332789 1127.136518 1353.916054 1076.560636 1324.922758 C 1047.419717 1355.864687 1006.055554 1375.114818 959.996958 1375.114818 C 913.967887 1375.114818 872.5742 1355.864687 843.43328 1324.922758 Z M 843.43328 1324.922758 " transform="matrix(0.132304,0,0,0.132304,0,0)"/>
<path style=" stroke:none;fill-rule:nonzero;fill:rgb(100%,100%,100%);fill-opacity:0.392157;" d="M 126.585938 23.167969 C 97.503906 23.167969 74.089844 46.773438 74.089844 76.089844 L 74.089844 78.738281 C 74.089844 49.417969 97.503906 25.816406 126.585938 25.816406 L 127.4375 25.816406 C 156.519531 25.816406 179.933594 49.417969 179.933594 78.738281 L 179.933594 76.089844 C 179.933594 46.773438 156.519531 23.167969 127.4375 23.167969 Z M 52.921875 107.84375 C 47.058594 107.84375 42.335938 112.5625 42.335938 118.429688 L 42.335938 121.074219 C 42.335938 115.210938 47.058594 110.488281 52.921875 110.488281 L 74.089844 110.488281 L 74.089844 107.84375 Z M 179.933594 107.84375 L 179.933594 110.488281 L 201.101562 110.488281 C 206.964844 110.488281 211.6875 115.210938 211.6875 121.074219 L 211.6875 118.429688 C 211.6875 112.5625 206.964844 107.84375 201.101562 107.84375 Z M 179.933594 107.84375 "/>
<path style=" stroke:none;fill-rule:nonzero;fill:rgb(0%,0%,0%);fill-opacity:0.235294;" d="M 42.335938 211.039062 L 42.335938 213.6875 C 42.335938 219.550781 47.058594 224.269531 52.921875 224.269531 L 201.101562 224.269531 C 206.964844 224.269531 211.6875 219.550781 211.6875 213.6875 L 211.6875 211.039062 C 211.6875 216.90625 206.964844 221.625 201.101562 221.625 L 52.921875 221.625 C 47.058594 221.625 42.335938 216.90625 42.335938 211.039062 Z M 42.335938 211.039062 "/>
<path style=" stroke:none;fill-rule:nonzero;fill:rgb(12.941177%,12.941177%,12.941177%);fill-opacity:1;" d="M 126.585938 22.417969 C 97.097656 22.417969 73.339844 46.371094 73.339844 76.089844 L 73.339844 107.09375 L 52.921875 107.09375 C 46.65625 107.09375 41.585938 112.160156 41.585938 118.429688 L 41.585938 213.6875 C 41.585938 219.953125 46.65625 225.019531 52.921875 225.019531 L 201.101562 225.019531 C 207.367188 225.019531 212.4375 219.953125 212.4375 213.6875 L 212.4375 118.429688 C 212.4375 112.160156 207.367188 107.09375 201.101562 107.09375 L 180.683594 107.09375 L 180.683594 76.089844 C 180.683594 46.371094 156.925781 22.417969 127.4375 22.417969 Z M 126.585938 23.917969 L 127.4375 23.917969 C 156.113281 23.917969 179.183594 47.171875 179.183594 76.089844 L 179.183594 108.59375 L 201.101562 108.59375 C 206.5625 108.59375 210.9375 112.964844 210.9375 118.429688 L 210.9375 213.6875 C 210.9375 219.148438 206.5625 223.519531 201.101562 223.519531 L 52.921875 223.519531 C 47.460938 223.519531 43.085938 219.148438 43.085938 213.6875 L 43.085938 118.429688 C 43.085938 112.964844 47.460938 108.59375 52.921875 108.59375 L 74.839844 108.59375 L 74.839844 76.089844 C 74.839844 47.171875 97.910156 23.917969 126.585938 23.917969 Z M 126.585938 23.917969 "/>
</g>
</svg>

<svg xmlns="http://www.w3.org/2000/svg" width="256pt" height="256pt" viewBox="0 0 256 256"><defs><radialGradient id="a" gradientUnits="userSpaceOnUse" cx="450.909" cy="189.579" fx="450.909" fy="189.579" r="21.167" gradientTransform="matrix(0 -.62506 -1.1251 0 406.46 508.763)"><stop offset="0" stop-opacity=".314"/><stop offset=".222" stop-opacity=".275"/><stop offset="1" stop-opacity="0"/></radialGradient><radialGradient id="b" gradientUnits="userSpaceOnUse" cx="450.909" cy="189.579" fx="450.909" fy="189.579" r="21.167" gradientTransform="matrix(0 .62506 1.1251 0 -152.437 -60.22)"><stop offset="0" stop-opacity=".314"/><stop offset=".222" stop-opacity=".275"/><stop offset="1" stop-opacity="0"/></radialGradient><radialGradient id="c" gradientUnits="userSpaceOnUse" cx="450.909" cy="189.579" fx="450.909" fy="189.579" r="21.167" gradientTransform="matrix(0 -.62506 1.1251 0 -152.437 508.763)"><stop offset="0" stop-opacity=".314"/><stop offset=".222" stop-opacity=".275"/><stop offset="1" stop-opacity="0"/></radialGradient><radialGradient id="d" gradientUnits="userSpaceOnUse" cx="450.909" cy="189.579" fx="450.909" fy="189.579" r="21.167" gradientTransform="matrix(0 .62506 -1.1251 0 406.46 -60.22)"><stop offset="0" stop-opacity=".314"/><stop offset=".222" stop-opacity=".275"/><stop offset="1" stop-opacity="0"/></radialGradient><linearGradient id="e" gradientUnits="userSpaceOnUse" x1="254" y1="233.5" x2="254" y2="254.667" gradientTransform="matrix(.6191 0 0 .50005 -26.965 107.51)"><stop offset="0" stop-opacity=".275"/><stop offset="1" stop-opacity="0"/></linearGradient><linearGradient id="f" gradientUnits="userSpaceOnUse" x1="960" y1="1695.118" x2="960" y2="175.118" gradientTransform="scale(.1323)"><stop offset="0" stop-color="#424242"/><stop offset="1" stop-color="#616161"/></linearGradient><linearGradient id="g" gradientUnits="userSpaceOnUse" x1="960" y1="335.118" x2="960" y2="1055.118"><stop offset="0" stop-color="#bdbdbd"/><stop offset="1" stop-color="#eee"/></linearGradient><linearGradient id="h" gradientUnits="userSpaceOnUse" x1="254" y1="64.167" x2="254" y2="127.667"><stop offset="0" stop-color="#bdbdbd"/><stop offset="1" stop-color="#eee"/></linearGradient><linearGradient id="i" gradientUnits="userSpaceOnUse" x1="960" y1="1375.118" x2="960" y2="1615.118"><stop offset="0" stop-color="#bdbdbd"/><stop offset="1" stop-color="#eee"/></linearGradient></defs><path d="M195.809 224.27h21.171v-10.583H195.81zm0 0" fill="url(#a)"/><path d="M58.215 224.27H37.047v10.585h21.168zm0 0" fill="url(#b)"/><path d="M58.215 224.27H37.047v-10.583h21.168zm0 0" fill="url(#c)"/><path d="M195.809 224.27h21.171v10.585H195.81zm0 0" fill="url(#d)"/><path d="M58.215 224.27h137.594v10.585H58.215zm0 0" fill="url(#e)"/><path d="M126.586 23.168c-29.082 0-52.496 23.605-52.496 52.922v31.754H52.922a10.562 10.562 0 0 0-10.586 10.586v95.257a10.561 10.561 0 0 0 10.586 10.583h148.18a10.561 10.561 0 0 0 10.585-10.583V118.43a10.562 10.562 0 0 0-10.585-10.586h-21.168V76.09c0-29.317-23.414-52.922-52.496-52.922zm0 0" fill="url(#f)"/><path d="M959.997 335.106c-132.95 0-240.007 107.057-240.007 240.006 0 132.98 107.057 240.007 240.007 240.007 32.123 0 62.71-6.26 90.67-17.626 39.327 138.53-79.48 212.785-9.89 212.785 188.397-72.366 159.227-415.148 159.227-436.376 0-.384-.03-.738-.03-1.092-1.24-131.888-107.795-237.704-239.977-237.704zm0 0" transform="scale(.1323)" fill="url(#g)" stroke-width="11.339" stroke="#212121"/><path d="M254 64.169c17.537 0 31.746 14.022 31.746 31.325v.851c0 17.295-14.21 31.325-31.747 31.325s-31.747-14.03-31.747-31.325v-.851c0-17.303 14.21-31.325 31.747-31.325zm0 0" transform="matrix(.50005 0 0 .50005 0 107.51)" fill="url(#h)" stroke-width="3" stroke="#212121"/><path d="M843.433 1324.923c-50.576 28.993-83.437 76.41-83.437 130.204v79.982c0 44.317 35.696 80.012 80.012 80.012h239.978c44.346 0 80.012-35.695 80.012-80.012v-79.982c0-53.794-32.861-101.21-83.437-130.204-29.141 30.942-70.505 50.192-116.564 50.192-46.03 0-87.423-19.25-116.564-50.192zm0 0" transform="scale(.1323)" fill="url(#i)" stroke-width="11.339" stroke="#212121"/><path d="M126.586 23.168c-29.082 0-52.496 23.605-52.496 52.922v2.648c0-29.32 23.414-52.922 52.496-52.922h.852c29.082 0 52.496 23.602 52.496 52.922V76.09c0-29.317-23.414-52.922-52.496-52.922zm-73.664 84.676a10.562 10.562 0 0 0-10.586 10.586v2.644a10.564 10.564 0 0 1 10.586-10.586H74.09v-2.644zm127.012 0v2.644h21.168a10.564 10.564 0 0 1 10.585 10.586v-2.644a10.562 10.562 0 0 0-10.585-10.586zm0 0" fill="#fff" fill-opacity=".392"/><path d="M42.336 211.04v2.648a10.561 10.561 0 0 0 10.586 10.582h148.18a10.561 10.561 0 0 0 10.585-10.583v-2.648a10.562 10.562 0 0 1-10.585 10.586H52.922a10.562 10.562 0 0 1-10.586-10.586zm0 0" fill-opacity=".235"/><path d="M126.586 22.418c-29.488 0-53.246 23.953-53.246 53.672v31.004H52.922a11.327 11.327 0 0 0-11.336 11.336v95.257c0 6.266 5.07 11.333 11.336 11.333h148.18c6.265 0 11.335-5.067 11.335-11.333V118.43c0-6.27-5.07-11.336-11.335-11.336h-20.418V76.09c0-29.719-23.758-53.672-53.246-53.672zm0 1.5h.852c28.675 0 51.746 23.254 51.746 52.172v32.504h21.918a9.797 9.797 0 0 1 9.835 9.836v95.257a9.796 9.796 0 0 1-9.835 9.833H52.922a9.796 9.796 0 0 1-9.836-9.833V118.43a9.797 9.797 0 0 1 9.836-9.836H74.84V76.09c0-28.918 23.07-52.172 51.746-52.172zm0 0" fill="#212121"/></svg>
